packages/icons/raw/imported/SportWaterpolo.svg

<svg width="32" height="32" viewBox="0 0 32 32" fill="none" xmlns="http://www.w3.org/2000/svg">
<path d="M9.46722 13.9001L11.1098 15.6122C11.3262 15.856 11.5975 16.0061 11.9216 16.0406L15.0547 16.3738M19.0073 15.0364L24.5049 9.61453C24.9533 9.17287 25.6819 9.18973 26.1337 9.65352C26.5876 10.1392 26.5759 10.8915 26.1085 11.3571L21.349 16.0217C20.9979 16.3654 20.8779 16.8853 21.0098 17.3584L23.7195 25.1243M17.1097 25.103L15.5612 19.793C15.4059 19.3001 14.986 18.9437 14.4882 18.8821L11.1158 18.5061C10.8128 18.4695 10.5437 18.3413 10.3506 18.1172L7.42534 15.2542C7.09019 14.8894 7.03866 14.3643 7.20964 13.9277M7.83654 6.55034C9.29443 6.47503 10.5429 7.63475 10.6251 9.14065C10.7073 10.6465 9.59211 11.9284 8.13422 12.0037C6.67633 12.079 5.42784 10.9193 5.34564 9.41337C5.26344 7.90748 6.37865 6.62566 7.83654 6.55034ZM18.4997 11.2377C18.6604 12.8752 17.5059 14.3287 15.9211 14.4843C14.3363 14.6398 12.9212 13.4384 12.7605 11.8009C12.5999 10.1634 13.7543 8.70993 15.3392 8.55441C16.924 8.39888 18.339 9.60025 18.4997 11.2377Z" stroke="black" stroke-miterlimit="10" stroke-linecap="round" stroke-linejoin="round"/>
<path d="M3.88919 24.7499V24.7499C4.78161 23.8709 6.19781 23.8113 7.17155 24.6118L7.46529 24.8533C8.50742 25.71 9.99939 25.7345 11.0584 24.9123L11.2926 24.7305C12.4301 23.8473 14.0268 23.8524 15.1699 24.743L15.3792 24.906C16.4516 25.7416 17.9606 25.7053 18.9807 24.8194V24.8194C20.0221 23.9151 21.5688 23.8983 22.6409 24.7797L22.7667 24.8831C23.8096 25.7404 25.314 25.7241 26.327 24.8444L26.5456 24.6546C27.4553 23.8646 28.8123 23.869 29.727 24.6649V24.6649" stroke="black" stroke-linecap="round" stroke-linejoin="round"/>
</svg>

<svg width="32" height="32" fill="none" xmlns="http://www.w3.org/2000/svg"><path d="m9.467 13.9 1.643 1.712c.216.244.488.394.812.429l3.133.333m3.952-1.338 5.498-5.421c.448-.442 1.177-.425 1.629.039a1.223 1.223 0 0 1-.026 1.703l-4.759 4.665a1.362 1.362 0 0 0-.34 1.336l2.71 7.766m-6.61-.021-1.548-5.31a1.303 1.303 0 0 0-1.073-.91l-3.372-.377a1.173 1.173 0 0 1-.765-.389l-2.926-2.863c-.335-.365-.386-.89-.215-1.326m.627-7.378c1.457-.075 2.706 1.085 2.788 2.59.082 1.506-1.033 2.788-2.49 2.864-1.459.075-2.707-1.085-2.79-2.59C5.264 7.906 6.38 6.625 7.838 6.55ZM18.5 11.238c.16 1.637-.994 3.09-2.579 3.246-1.585.156-3-1.046-3.16-2.683-.161-1.638.993-3.091 2.578-3.247 1.585-.155 3 1.046 3.16 2.684Z" stroke="#000" stroke-miterlimit="10" stroke-linecap="round" stroke-linejoin="round"/><path d="M3.89 24.75v0a2.455 2.455 0 0 1 3.282-.138l.293.241a2.879 2.879 0 0 0 3.593.06l.235-.183a3.158 3.158 0 0 1 3.877.013l.21.163c1.072.836 2.58.8 3.6-.087v0a2.836 2.836 0 0 1 3.66-.04l.127.104a2.758 2.758 0 0 0 3.56-.039l.219-.19a2.425 2.425 0 0 1 3.181.01v0" stroke="#000" stroke-linecap="round" stroke-linejoin="round"/></svg>
